svgs/sharp-light/tablet.svg

<svg xmlns="http://www.w3.org/2000/svg" viewBox="0 0 448 512"><!--! Font Awesome Pro 6.6.0 by @fontawesome - https://fontawesome.com License - https://fontawesome.com/license (Commercial License) Copyright 2024 Fonticons, Inc. --><path d="M32 32l0 448 384 0 0-448L32 32zM0 0L32 0 416 0l32 0 0 32 0 448 0 32-32 0L32 512 0 512l0-32L0 32 0 0zM192 400l64 0 16 0 0 32-16 0-64 0-16 0 0-32 16 0z"/></svg>

<svg xmlns="http://www.w3.org/2000/svg" viewBox="0 0 448 512"><!--! Font Awesome Pro 6.4.2 by @fontawesome - https://fontawesome.com License - https://fontawesome.com/license (Commercial License) Copyright 2023 Fonticons, Inc. --><path d="M32 32V480H416V32H32zM0 0H32 416h32V32 480v32H416 32 0V480 32 0zM192 400h64 16v32H256 192 176V400h16z"/></svg>
